X:2775
T:Cauld Kail. WM134
M:2/4
L:1/8
Q:220
C:*
S:Wm.Mittell,1799
R:Scots Measure
O:England
A:Kent
N:
D:
H:
Z:C.G.P
W:
K:G
G|B>d g>e|d>B A>G|B>d e/f/g/e/|d2G>G|B>d g>e|d>B A>G|B>d e/f/g/e/|d2G:|!
|:d|g>a b>g|a>f e>d|g>a b>g|a>f d>d|g>a b>g|c'>a f(4a/g/f/e/)|d>B g>e|d2
G:|]


